X:2
%%scale .56
T:Aconry Lasses Set
T:Aconry Lasses
M:4/4
K:D
|GBAF DEFA|d2 cA BGAF|GBAF DEFA|d/c/B cA BGAF|
GBAF DEFA|d2 cA BGAF|GABG FGAc|cBBG BGBd||
g2 ag fddf|eccB cdef|g2 ag fddB|cedc BGBd|
g2 ag fddf|eccB|cdef|gaag fafd|cedc BGAF||
T:Old wheels of the World
gf||eAA2 eABA|GE3 G3 E|A3 B cBcd|efge d2 Bd|
eAA2 eABA|GE E2 G3 E|A3 B cBcd|efged2Bd||
dgg2dgg2|eaa2eaa2|efge defg|a/g/f g/f/e d2Bc|
dgg2 dgfg|eaa2eaa2|efge defg|afged2gf||
T:Spike Island Lasses
K:D
=cAGB ADD2|FDAD FD D2{B/c/d}|=cAGc AGFG|Adde fded|
=cAGB ADD2|FDAF FDD2{B/c/d}|=cAGc AGFG|Addc d3e||
f2df ef g/f/e|dfed cAA2|f/g/f df edc[dB]|Addcd2cd|
eaag efge|dfed =cAG[cG]|Addc d3=c|Adde fded||
=cAGc A3d|B3=cA2dB|=cAGB AGFG|Adde fded|
=cAGB A3d|BGGF GBdB|=cAG2 AGFG|Addcd3e||
f/e/d ad fd[Aa]d|faaf gee2|fdad faaf|gagf d=c A/B/c|
defg a3b|agfag3e|fedf edcA|dcde fded||"last time"=cAGED4||

